flaticon/technology/smartphone-1.svg

<svg xmlns="http://www.w3.org/2000/svg" width="32" height="32" viewBox="0 0 24 24">
    <path d="M6.398438 6C6.503906 6 6.605469 5.960938 6.683594 5.882812L8.28125 4.28125C8.4375 4.125 8.4375 3.875 8.28125 3.71875 8.125 3.5625 7.875 3.5625 7.71875 3.71875L6.117188 5.316406C5.960938 5.472656 5.960938 5.726562 6.117188 5.882812 6.195312 5.960938 6.296875 6 6.398438 6zM6.398438 8C6.503906 8 6.605469 7.960938 6.683594 7.882812L7.484375 7.082031C7.640625 6.925781 7.640625 6.671875 7.484375 6.515625 7.328125 6.359375 7.074219 6.359375 6.917969 6.515625L6.117188 7.316406C5.960938 7.472656 5.960938 7.726562 6.117188 7.882812 6.195312 7.960938 6.296875 8 6.398438 8zM7.714844 5.714844C7.644531 5.792969 7.601562 5.890625 7.601562 6 7.601562 6.105469 7.644531 6.207031 7.714844 6.285156 7.792969 6.355469 7.894531 6.398438 8 6.398438 8.105469 6.398438 8.207031 6.355469 8.285156 6.285156 8.355469 6.207031 8.398438 6.105469 8.398438 6 8.398438 5.894531 8.355469 5.792969 8.285156 5.714844 8.136719 5.566406 7.863281 5.566406 7.714844 5.714844zM8.515625 5.484375C8.59375 5.5625 8.699219 5.601562 8.800781 5.601562 8.902344 5.601562 9.003906 5.5625 9.082031 5.484375L10.28125 4.28125C10.4375 4.125 10.4375 3.875 10.28125 3.71875 10.125 3.5625 9.875 3.5625 9.71875 3.71875L8.515625 4.917969C8.359375 5.074219 8.359375 5.328125 8.515625 5.484375zM9.71875 5.71875L6.117188 9.316406C5.960938 9.472656 5.960938 9.726562 6.117188 9.882812 6.195312 9.960938 6.296875 10 6.398438 10 6.503906 10 6.605469 9.960938 6.683594 9.882812L10.28125 6.28125C10.4375 6.125 10.4375 5.875 10.28125 5.71875 10.125 5.5625 9.875 5.5625 9.71875 5.71875zM10.515625 4.914062C10.445312 4.992188 10.398438 5.089844 10.398438 5.199219 10.398438 5.304688 10.445312 5.40625 10.515625 5.484375 10.589844 5.554688 10.695312 5.601562 10.800781 5.601562 10.902344 5.601562 11.007812 5.554688 11.085938 5.484375 11.15625 5.40625 11.199219 5.304688 11.199219 5.199219 11.199219 5.089844 11.15625 4.992188 11.085938 4.921875 10.9375 4.769531 10.664062 4.769531 10.515625 4.914062zM6.515625 1.316406C6.445312 1.390625 6.398438 1.492188 6.398438 1.601562 6.398438 1.703125 6.445312 1.808594 6.515625 1.882812 6.589844 1.957031 6.695312 2 6.800781 2 6.902344 2 7.007812 1.960938 7.085938 1.882812 7.15625 1.808594 7.199219 1.703125 7.199219 1.601562 7.199219 1.496094 7.15625 1.390625 7.085938 1.316406 6.933594 1.167969 6.664062 1.167969 6.515625 1.316406zM11.71875 3.71875L11.316406 4.117188C11.160156 4.273438 11.160156 4.527344 11.316406 4.683594 11.394531 4.761719 11.496094 4.800781 11.601562 4.800781 11.703125 4.800781 11.804688 4.761719 11.882812 4.683594L12.28125 4.28125C12.4375 4.125 12.4375 3.875 12.28125 3.71875 12.125 3.5625 11.875 3.5625 11.71875 3.71875zM11.71875 3.71875"/>
    <path d="M 17.964844 0 L 6.035156 0 C 5.355469 0 4.800781 0.554688 4.800781 1.234375 L 4.800781 22.765625 C 4.800781 23.445312 5.355469 24 6.035156 24 L 17.964844 24 C 18.644531 24 19.199219 23.445312 19.199219 22.765625 L 19.199219 1.234375 C 19.199219 0.554688 18.644531 0 17.964844 0 Z M 5.601562 3.199219 L 18.398438 3.199219 L 18.398438 19.601562 L 5.601562 19.601562 Z M 18.398438 22.765625 C 18.398438 23.003906 18.203125 23.199219 17.964844 23.199219 L 6.035156 23.199219 C 5.796875 23.199219 5.601562 23.003906 5.601562 22.765625 L 5.601562 20.398438 L 18.398438 20.398438 Z M 5.601562 2.398438 L 5.601562 1.234375 C 5.601562 0.996094 5.796875 0.800781 6.035156 0.800781 L 17.964844 0.800781 C 18.203125 0.800781 18.398438 0.996094 18.398438 1.234375 L 18.398438 2.398438 Z M 5.601562 2.398438"/>
    <path d="M13.199219 1.199219L10.800781 1.199219C10.578125 1.199219 10.398438 1.378906 10.398438 1.601562 10.398438 1.820312 10.578125 2 10.800781 2L13.199219 2C13.421875 2 13.601562 1.820312 13.601562 1.601562 13.601562 1.378906 13.421875 1.199219 13.199219 1.199219zM16.800781 1.199219L16.398438 1.199219C16.179688 1.199219 16 1.378906 16 1.601562 16 1.820312 16.179688 2 16.398438 2L16.800781 2C17.019531 2 17.199219 1.820312 17.199219 1.601562 17.199219 1.378906 17.019531 1.199219 16.800781 1.199219zM15.199219 1.199219L14.800781 1.199219C14.578125 1.199219 14.398438 1.378906 14.398438 1.601562 14.398438 1.820312 14.578125 2 14.800781 2L15.199219 2C15.421875 2 15.601562 1.820312 15.601562 1.601562 15.601562 1.378906 15.421875 1.199219 15.199219 1.199219zM11 22.800781L13 22.800781C13.550781 22.800781 14 22.351562 14 21.800781 14 21.25 13.550781 20.800781 13 20.800781L11 20.800781C10.449219 20.800781 10 21.25 10 21.800781 10 22.351562 10.449219 22.800781 11 22.800781zM11 21.601562L13 21.601562C13.109375 21.601562 13.199219 21.691406 13.199219 21.800781 13.199219 21.910156 13.109375 22 13 22L11 22C10.890625 22 10.800781 21.910156 10.800781 21.800781 10.800781 21.691406 10.890625 21.601562 11 21.601562zM11 21.601562"/>
</svg>

<svg xmlns="http://www.w3.org/2000/svg" width="32" height="32" viewBox="0 0 24 24">
    <path d="M6.398 6c.106 0 .207-.04.286-.117L8.28 4.28a.396.396 0 0 0 0-.562.396.396 0 0 0-.562 0L6.117 5.316A.4.4 0 0 0 6.398 6zm0 0M6.398 8c.106 0 .207-.04.286-.117l.8-.801a.4.4 0 0 0-.566-.566l-.8.8a.4.4 0 0 0 .28.684zm0 0M7.715 5.715A.423.423 0 0 0 7.602 6a.43.43 0 0 0 .113.285.43.43 0 0 0 .285.113.43.43 0 0 0 .285-.113A.43.43 0 0 0 8.398 6a.43.43 0 0 0-.113-.285.42.42 0 0 0-.57 0zm0 0M8.516 5.484a.405.405 0 0 0 .285.118c.101 0 .203-.04.281-.118l1.2-1.203a.396.396 0 0 0 0-.562.396.396 0 0 0-.563 0L8.516 4.918a.4.4 0 0 0 0 .566zm0 0M9.719 5.719L6.117 9.316a.4.4 0 0 0 .567.567L10.28 6.28a.396.396 0 0 0 0-.562.396.396 0 0 0-.562 0zm0 0M10.516 4.914a.426.426 0 0 0-.118.285c0 .106.047.207.118.285.074.07.18.118.285.118a.442.442 0 0 0 .285-.118.43.43 0 0 0 .113-.285.39.39 0 0 0-.113-.277.421.421 0 0 0-.57-.008zm0 0M6.516 1.316a.419.419 0 0 0-.118.286c0 .101.047.207.118.28a.409.409 0 0 0 .57 0 .42.42 0 0 0 .113-.28.423.423 0 0 0-.113-.286.42.42 0 0 0-.57 0zm0 0M11.719 3.719l-.403.398a.4.4 0 0 0 .567.567l.398-.403a.396.396 0 0 0 0-.562.396.396 0 0 0-.562 0zm0 0"/>
    <path d="M17.965 0H6.035c-.68 0-1.234.555-1.234 1.234v21.532c0 .68.554 1.234 1.234 1.234h11.93c.68 0 1.234-.555 1.234-1.234V1.234C19.2.554 18.645 0 17.965 0zM5.602 3.2h12.796v16.402H5.602zm12.796 19.566a.435.435 0 0 1-.433.433H6.035a.435.435 0 0 1-.433-.433v-2.368h12.796zM5.602 2.398V1.234c0-.238.195-.433.433-.433h11.93c.238 0 .433.195.433.433v1.164zm0 0"/>
    <path d="M13.2 1.2h-2.4a.401.401 0 0 0 0 .8h2.4a.401.401 0 1 0 0-.8zm0 0M16.8 1.2h-.402a.401.401 0 0 0 0 .8h.403a.4.4 0 0 0 0-.8zm0 0M15.2 1.2h-.4a.401.401 0 0 0 0 .8h.4a.401.401 0 1 0 0-.8zm0 0M11 22.8h2c.55 0 1-.448 1-1 0-.55-.45-1-1-1h-2c-.55 0-1 .45-1 1 0 .552.45 1 1 1zm0-1.198h2c.11 0 .2.09.2.199A.2.2 0 0 1 13 22h-2a.2.2 0 0 1-.2-.2c0-.109.09-.198.2-.198zm0 0"/>
</svg>
